X:106
T:For The Love Of Music
R:slip jig
C:Liz Carroll
H:Also played in A
Z:id:hn-slipjig-106
M:9/8
L:1/8
K:G
GED DEG AGB | AGG GBd edd | GED DEG AGc | Bee BAB GEE :|
ged e/f/gB GB/c/d | ged egb a2f | ged e/f/gB AB/c/d | edB dBG ABd |
ged e/f/gB GB/c/d | ged egb a2a | bee e/f/ge a2g | edB dBG ABA ||
P:variations
|: GED DEG A2B | AGG GBd edd | GED DEG A2c | Bee BAB GEE :|
ged egB G2d | ged egb ~a3 | ged egB ABd | edB dBG AB/c/d |
ged egB G2d | ged egb ~a3 | bee gee a2g | edB dBG ABA ||

